svgs/light/face-pensive.svg

<svg xmlns="http://www.w3.org/2000/svg" viewBox="0 0 512 512"><!--! Font Awesome Pro 6.4.2 by @fontawesome - https://fontawesome.com License - https://fontawesome.com/license (Commercial License) Copyright 2023 Fonticons, Inc. --><path d="M480 256A224 224 0 1 0 32 256a224 224 0 1 0 448 0zM0 256a256 256 0 1 1 512 0A256 256 0 1 1 0 256zM208 384h96c8.8 0 16 7.2 16 16s-7.2 16-16 16H208c-8.8 0-16-7.2-16-16s7.2-16 16-16zM387.2 270.4c5.3-7.1 15.3-8.5 22.4-3.2s8.5 15.3 3.2 22.4c-30.4 40.5-91.2 40.5-121.6 0c-5.3-7.1-3.9-17.1 3.2-22.4s17.1-3.9 22.4 3.2c17.6 23.5 52.8 23.5 70.4 0zm-262.4 0c17.6 23.5 52.8 23.5 70.4 0c5.3-7.1 15.3-8.5 22.4-3.2s8.5 15.3 3.2 22.4c-30.4 40.5-91.2 40.5-121.6 0c-5.3-7.1-3.9-17.1 3.2-22.4s17.1-3.9 22.4 3.2zM81.7 215.2c-4-7.9-.7-17.5 7.2-21.5l22.9-11.4c14.5-7.2 27.2-17.6 37.4-30.2l14.4-18c5.5-6.9 15.6-8 22.5-2.5s8 15.6 2.5 22.5l-14.4 18c-13 16.3-29.4 29.5-48 38.8l-22.9 11.4c-7.9 4-17.5 .7-21.5-7.2zm341.5-21.5c7.9 4 11.1 13.6 7.2 21.5s-13.6 11.1-21.5 7.2L386 210.9c-18.6-9.3-35-22.6-48.1-38.8l-14.4-18c-5.5-6.9-4.4-17 2.5-22.5s17-4.4 22.5 2.5l14.4 18c10.1 12.7 22.9 23 37.4 30.2l22.9 11.4z"/></svg>

<svg xmlns="http://www.w3.org/2000/svg" viewBox="0 0 512 512"><!--! Font Awesome Pro 6.1.1 by @fontawesome - https://fontawesome.com License - https://fontawesome.com/license (Commercial License) Copyright 2022 Fonticons, Inc. --><path d="M304 384C312.8 384 320 391.2 320 400C320 408.8 312.8 416 304 416H208C199.2 416 192 408.8 192 400C192 391.2 199.2 384 208 384H304zM409.6 267.2C416.7 272.5 418.1 282.5 412.8 289.6C382.4 330.1 321.6 330.1 291.2 289.6C285.9 282.5 287.3 272.5 294.4 267.2C301.5 261.9 311.5 263.3 316.8 270.4C334.4 293.9 369.6 293.9 387.2 270.4C392.5 263.3 402.5 261.9 409.6 267.2zM124.8 270.4C142.4 293.9 177.6 293.9 195.2 270.4C200.5 263.3 210.5 261.9 217.6 267.2C224.7 272.5 226.1 282.5 220.8 289.6C190.4 330.1 129.6 330.1 99.2 289.6C93.9 282.5 95.33 272.5 102.4 267.2C109.5 261.9 119.5 263.3 124.8 270.4zM81.69 215.2C77.74 207.3 80.94 197.6 88.84 193.7L111.7 182.3C126.2 175 138.9 164.7 149.1 152.1L163.5 134C169 127.1 179.1 125.1 185.1 131.5C192.9 137 194 147.1 188.5 153.1L174.1 172C161 188.3 144.6 201.6 126 210.9L103.2 222.3C95.25 226.3 85.64 223.1 81.69 215.2V215.2zM423.2 193.7C431.1 197.6 434.3 207.3 430.3 215.2C426.4 223.1 416.7 226.3 408.8 222.3L385.1 210.9C367.4 201.6 350.1 188.3 337.9 172L323.5 153.1C317.1 147.1 319.1 137 326 131.5C332.9 125.1 342.1 127.1 348.5 134L362.9 152.1C373.1 164.7 385.8 175 400.3 182.3L423.2 193.7zM512 256C512 397.4 397.4 512 256 512C114.6 512 0 397.4 0 256C0 114.6 114.6 0 256 0C397.4 0 512 114.6 512 256zM256 32C132.3 32 32 132.3 32 256C32 379.7 132.3 480 256 480C379.7 480 480 379.7 480 256C480 132.3 379.7 32 256 32z"/></svg>
